X: 2
T: Julianne Johnson
M: C|
L: 1/8
R: reel
K: D
z2 |\
"D"fafe dfed | "G"Bd- de "D"d2fg |\
[1,3 a2a2- aab2 | "A7" a6 :|\
[2,4 f2e2 "(G)"dAB2 | "A7"A6 :: A2 |\
"G" B4 d3A |
"G"BABc "D"d3A | "G"BABc dAB2 | "D"A6- AA ||\
"G"BABc "D"d2AA | "G"BABc d2e2 | "D"f2ff  edB2 |\
["usual" "A7"A6 :| ["Transition" "A"A3A- Ace^g ||


